X:434
T: Sanyuelilai haofengguang
N: C2052
O: China,Anhui Lujiang
S: III, 545]
R: Xiaodiao, Denggezi]
M: 2/4
L: 1/16
K: A
B2c2B2F2 | A2F2A4 |
B2c2e2f2 | e2c2c4 |
B4e2c2 | B2A2F2E2 | A2F2A2z2 |
B2c2A2A2 | B4c2e2 | e2c2B2F2 | A8 |
A3Bc2e2 | B2e2c2B2 | A4B2Az |
B2c2B2A2 | B4c2e2 | B6c2 | B2A2F2E2 |
c2e2c2B2 | A2B2c2e2 | B3cB2A2 | F3AE2F2 | A4A4 |
e6c2 | B2A2F4- | F4
F2A2 | B2e2c2B2 | c2F2A4 |
B3cA4 | B2e2c4- | c2
B2c4 | E4E2F2 | A6B2 | F2E2c6z2
B2c2B2A2 | F6A2 | B8 |
A4B4 | F2A2E2F2 | A2F2A4 |
B2c2A4 | B4c2e2 | B2e2c2B2 | A8 |
A2B2c2e2 | B2e2c2B2 | A4B2Az

@@@ Tune index: 6989
